X:104
M:2/4
L:1/8
K:D
e | fb ba | fe fe | de fg | ab/a/ fe | 
fb ba | fe fe | dB c/B/A | B2 B :|| 

